components/ui/icons/src/main/assets/mozac_error_hourglass.svg

<svg viewBox="0 0 256 70" xmlns="http://www.w3.org/2000/svg" xmlns:xlink="http://www.w3.org/1999/xlink"><radialGradient id="a" cx="143.54" cy="81.07" gradientTransform="matrix(1 0 0 .7 0 24.46)" gradientUnits="userSpaceOnUse" r="146.71"><stop offset=".08" stop-color="#cdcdd4" stop-opacity="0"/><stop offset=".36" stop-color="#cdcdd4" stop-opacity=".02"/><stop offset=".65" stop-color="#cdcdd4" stop-opacity=".08"/><stop offset=".94" stop-color="#cdcdd4" stop-opacity=".18"/><stop offset="1" stop-color="#cdcdd4" stop-opacity=".2"/></radialGradient><radialGradient id="b" cx="25.52" cy="-3.12" gradientUnits="userSpaceOnUse" r="113.73"><stop offset="0" stop-color="#fff4de"/><stop offset=".15" stop-color="#fff1d9"/><stop offset=".32" stop-color="#ffe7cc"/><stop offset=".5" stop-color="#ffd6b5"/><stop offset=".69" stop-color="#ffbf95"/><stop offset=".76" stop-color="#ffb587"/></radialGradient><linearGradient id="c" gradientUnits="userSpaceOnUse" x1="17.06" x2="58.93" y1="12.67" y2="45.61"><stop offset=".44" stop-color="#ff8a50"/><stop offset=".91" stop-color="#ff298a"/></linearGradient><linearGradient id="d" gradientUnits="userSpaceOnUse" x1="21.99" x2="81.31" y1="63.28" y2="3.96"><stop offset=".24" stop-color="#e31587"/><stop offset=".63" stop-color="#ff298a"/><stop offset="1" stop-color="#ff8a50"/></linearGradient><path d="m4.45 35.06a23.24 23.24 0 0 1 23.15-23.33l174.6-.5a23.25 23.25 0 1 1 .18 46.49l-174.59.5a23.25 23.25 0 0 1 -23.34-23.16z" fill="url(#a)"/><path d="m238.23 29.47a8 8 0 0 1 -7.91 8h-31.83a6.08 6.08 0 0 1 0-12.16 5.84 5.84 0 0 1 1.46.19 6 6 0 0 1 -.17-1.41 6.28 6.28 0 0 1 9.81-5.17 10.54 10.54 0 0 1 20.73 2.65 7.94 7.94 0 0 1 7.91 7.9z" fill="#cdcdd4" opacity=".15"/><path d="m98 37.08a9.25 9.25 0 0 0 -2.19.27 9.84 9.84 0 0 0 .24-2.12 9.45 9.45 0 0 0 -14.79-7.78 15.87 15.87 0 0 0 -31.23 4 11.93 11.93 0 1 0 0 23.85h47.97a9.11 9.11 0 0 0 0-18.21z" fill="#cdcdd4" opacity=".15"/><path d="m60.21 25.49c-2.44 2.44-5.34 5.6-5.7 9.72.36 4.12 3.26 7.29 5.7 9.72a15.48 15.48 0 0 1 5.39 11.75v6.62h-31v-6.6a15.48 15.48 0 0 1 5.4-11.77c2.44-2.43 5.34-5.6 5.7-9.72-.36-4.12-3.26-7.28-5.7-9.72a15.46 15.46 0 0 1 -5.39-11.75v-6.74h31v6.71a15.46 15.46 0 0 1 -5.4 11.78z" fill="url(#b)"/><path d="m50.09 55.48c1.16 0 7 6.39 7 6.39h-14s5.85-6.39 7-6.39zm-.61-8.48a.7.7 0 1 0 .69.69.69.69 0 0 0 -.69-.69zm.69 2.48a.7.7 0 1 0 .7.69.69.69 0 0 0 -.7-.68zm-1.69 4.16a.7.7 0 1 0 .7.69.69.69 0 0 0 -.7-.68zm2.08-9.82a.7.7 0 1 0 .69.7.7.7 0 0 0 -.69-.69zm-12-24.76c0 2.89 3.27 5.48 5.3 7.23 1.5 1.51 4.07 4.34 4.07 7.91v.34c.07 2.92.44 6.16 1.37 7.32a.7.7 0 1 0 1.24.44.69.69 0 0 0 0-.13c1.24-.76 1.68-4.73 1.72-8.23.21-3 2.63-6.21 4.07-7.65 2-1.75 5.3-4.34 5.3-7.23 0-1.4-23.07-1.4-23.07.01zm12.34 33.26a.7.7 0 1 0 .69.7.7.7 0 0 0 -.69-.7z" fill="url(#c)"/><path d="m65.6 8.76h-31a1.73 1.73 0 0 1 0-3.46h31a1.73 1.73 0 1 1 0 3.46zm1.73 54.56a1.73 1.73 0 0 0 -1.73-1.73h-31a1.73 1.73 0 0 0 0 3.46h31a1.74 1.74 0 0 0 1.73-1.73z" fill="url(#d)"/><path d="m61.63 18.65c0 1.08-5.16 1.94-11.54 1.94s-11.53-.86-11.53-1.94 5.16-1.93 11.53-1.93 11.54.86 11.54 1.93z" fill="#ffb587"/></svg>

<svg id="Layer_1" data-name="Layer 1" xmlns="http://www.w3.org/2000/svg" xmlns:xlink="http://www.w3.org/1999/xlink" viewBox="0 0 256 70"><defs><style>.cls-1{fill:url(#radial-gradient);}.cls-2{fill:#cdcdd4;opacity:0.15;}.cls-3{fill:url(#radial-gradient-2);}.cls-4{fill:url(#linear-gradient);}.cls-5{fill:url(#linear-gradient-2);}.cls-6{fill:#ffb587;}</style><radialGradient id="radial-gradient" cx="143.54" cy="81.07" r="146.71" gradientTransform="translate(0 24.46) scale(1 0.7)" gradientUnits="userSpaceOnUse"><stop offset="0.08" stop-color="#cdcdd4" stop-opacity="0"/><stop offset="0.36" stop-color="#cdcdd4" stop-opacity="0.02"/><stop offset="0.65" stop-color="#cdcdd4" stop-opacity="0.08"/><stop offset="0.94" stop-color="#cdcdd4" stop-opacity="0.18"/><stop offset="1" stop-color="#cdcdd4" stop-opacity="0.2"/></radialGradient><radialGradient id="radial-gradient-2" cx="25.52" cy="-3.12" r="113.73" gradientUnits="userSpaceOnUse"><stop offset="0" stop-color="#fff4de"/><stop offset="0.15" stop-color="#fff1d9"/><stop offset="0.32" stop-color="#ffe7cc"/><stop offset="0.5" stop-color="#ffd6b5"/><stop offset="0.69" stop-color="#ffbf95"/><stop offset="0.76" stop-color="#ffb587"/></radialGradient><linearGradient id="linear-gradient" x1="17.06" y1="12.67" x2="58.93" y2="45.61" gradientUnits="userSpaceOnUse"><stop offset="0.44" stop-color="#ff8a50"/><stop offset="0.91" stop-color="#ff298a"/></linearGradient><linearGradient id="linear-gradient-2" x1="21.99" y1="63.28" x2="81.31" y2="3.96" gradientUnits="userSpaceOnUse"><stop offset="0.24" stop-color="#e31587"/><stop offset="0.63" stop-color="#ff298a"/><stop offset="1" stop-color="#ff8a50"/></linearGradient></defs><title>fx-fenix_error_8</title><path class="cls-1" d="M4.45,35.06A23.24,23.24,0,0,1,27.6,11.73l174.6-.5a23.25,23.25,0,1,1,.18,46.49l-174.59.5A23.25,23.25,0,0,1,4.45,35.06Z"/><path class="cls-2" d="M238.23,29.47a8,8,0,0,1-7.91,8H198.49a6.08,6.08,0,0,1,0-12.16,5.84,5.84,0,0,1,1.46.19,6,6,0,0,1-.17-1.41,6.28,6.28,0,0,1,9.81-5.17,10.54,10.54,0,0,1,20.73,2.65A7.94,7.94,0,0,1,238.23,29.47Z"/><path class="cls-2" d="M98,37.08a9.25,9.25,0,0,0-2.19.27,9.84,9.84,0,0,0,.24-2.12,9.45,9.45,0,0,0-14.79-7.78,15.87,15.87,0,0,0-31.23,4,11.93,11.93,0,1,0,0,23.85H98a9.11,9.11,0,0,0,0-18.21Z"/><path class="cls-3" d="M60.21,25.49c-2.44,2.44-5.34,5.6-5.7,9.72.36,4.12,3.26,7.29,5.7,9.72A15.48,15.48,0,0,1,65.6,56.68v0h0v6.62h-31V56.7h0v0A15.48,15.48,0,0,1,40,44.93c2.44-2.43,5.34-5.6,5.7-9.72-.36-4.12-3.26-7.28-5.7-9.72a15.46,15.46,0,0,1-5.39-11.75V7h31v6.71A15.46,15.46,0,0,1,60.21,25.49Z"/><path class="cls-4" d="M50.09,55.48c1.16,0,7,6.39,7,6.39h-14S48.94,55.48,50.09,55.48ZM49.48,47a.7.7,0,1,0,.69.69A.69.69,0,0,0,49.48,47Zm.69,2.48a.7.7,0,1,0,.7.69A.69.69,0,0,0,50.17,49.49Zm-1.69,4.16a.7.7,0,1,0,.7.69A.69.69,0,0,0,48.48,53.65Zm2.08-9.82a.7.7,0,1,0,.69.7A.7.7,0,0,0,50.56,43.83Zm-12-24.76c0,2.89,3.27,5.48,5.3,7.23,1.5,1.51,4.07,4.34,4.07,7.91,0,.12,0,.23,0,.34.07,2.92.44,6.16,1.37,7.32a.7.7,0,1,0,1.24.44.69.69,0,0,0,0-.13c1.24-.76,1.68-4.73,1.72-8.23.21-3,2.63-6.21,4.07-7.65,2-1.75,5.3-4.34,5.3-7.23C61.63,17.66,38.56,17.66,38.56,19.07ZM50.9,52.32a.7.7,0,1,0,.69.7A.7.7,0,0,0,50.9,52.32Z"/><g id="Layer_4" data-name="Layer 4"><path class="cls-5" d="M65.6,8.76h-31a1.73,1.73,0,0,1,0-3.46h31a1.73,1.73,0,1,1,0,3.46Zm1.73,54.56a1.73,1.73,0,0,0-1.73-1.73h-31a1.73,1.73,0,0,0,0,3.46h31A1.74,1.74,0,0,0,67.33,63.32Z"/></g><g id="Layer_5" data-name="Layer 5"><path class="cls-6" d="M61.63,18.65c0,1.08-5.16,1.94-11.54,1.94s-11.53-.86-11.53-1.94,5.16-1.93,11.53-1.93S61.63,17.58,61.63,18.65Z"/></g></svg>
